src/16/actions/mail-folder-sent.svg

<?xml version="1.0" encoding="UTF-8" standalone="no"?>
<svg
   xmlns:dc="http://purl.org/dc/elements/1.1/"
   xmlns:cc="http://creativecommons.org/ns#"
   xmlns:rdf="http://www.w3.org/1999/02/22-rdf-syntax-ns#"
   xmlns:svg="http://www.w3.org/2000/svg"
   xmlns="http://www.w3.org/2000/svg"
   xmlns:sodipodi="http://sodipodi.sourceforge.net/DTD/sodipodi-0.dtd"
   xmlns:inkscape="http://www.inkscape.org/namespaces/inkscape"
   width="16"
   height="16"
   version="1.1"
   id="svg7"
   sodipodi:docname="mail-folder-sent.svg"
   inkscape:version="0.92.4 (5da689c313, 2019-01-14)">
  <metadata
     id="metadata11">
    <rdf:RDF>
      <cc:Work
         rdf:about="">
        <dc:format>image/svg+xml</dc:format>
        <dc:type
           rdf:resource="http://purl.org/dc/dcmitype/StillImage" />
      </cc:Work>
    </rdf:RDF>
  </metadata>
  <sodipodi:namedview
     pagecolor="#ffffff"
     bordercolor="#666666"
     borderopacity="1"
     objecttolerance="10"
     gridtolerance="10"
     guidetolerance="10"
     inkscape:pageopacity="0"
     inkscape:pageshadow="2"
     inkscape:window-width="1366"
     inkscape:window-height="710"
     id="namedview9"
     showgrid="false"
     inkscape:zoom="14.75"
     inkscape:cx="1.2765279"
     inkscape:cy="5.8591824"
     inkscape:window-x="0"
     inkscape:window-y="28"
     inkscape:window-maximized="1"
     inkscape:current-layer="svg7" />
  <defs
     id="defs3">
    <style
       id="current-color-scheme"
       type="text/css">
   .ColorScheme-Text { color:#565656; } .ColorScheme-Highlight { color:#5294e2; }
  </style>
  </defs>
  <path
     style="display:inline;opacity:0.5;fill:#565656;fill-opacity:1;stroke:none;stroke-width:1;stroke-linecap:round;stroke-linejoin:miter;stroke-miterlimit:4;stroke-dasharray:none;stroke-opacity:1;paint-order:stroke markers fill;enable-background:new"
     d="M 2 1 C 1.446 1 1 1.446 1 2 L 1 5 C 1 5.554 1.446 6 2 6 L 6.8808594 6 C 7.2382032 5.8952982 7.6088052 5.8222656 8 5.8222656 C 8.3911771 5.8222656 8.7618036 5.8952982 9.1191406 6 L 14 6 C 14.554 6 15 5.554 15 5 L 15 2 C 15 1.446 14.554 1 14 1 L 2 1 z "
     id="rect23" />
  <path
     style="display:inline;fill:#565656;fill-opacity:1;stroke:none;enable-background:new"
     d="M 8 3 L 7 5 L 1 5 C 0.446 5 0 5.446 0 6 L 0 14 C 0 14.554 0.446 15 1 15 L 15 15 C 15.554 15 16 14.554 16 14 L 16 8 L 16 6 L 16 4 C 16 3.5 15.5 3 15 3 L 8 3 z M 8 5.8222656 C 10.209 5.8222656 12 7.6132656 12 9.8222656 L 12 10.322266 C 12 11.151266 11.328 11.822266 10.5 11.822266 C 10.057 11.822266 9.6366625 11.626109 9.3515625 11.287109 C 8.9951625 11.616109 8.5231 11.822266 8 11.822266 C 6.8954 11.822266 6 10.927266 6 9.8222656 C 6 8.7178656 6.8954 7.8222656 8 7.8222656 C 9.1046 7.8222656 10 8.7178656 10 9.8222656 L 10 10.322266 C 10 10.598566 10.224 10.822266 10.5 10.822266 C 10.776 10.822266 11 10.598566 11 10.322266 L 11 9.8222656 C 11 8.1654656 9.6569 6.8222656 8 6.8222656 C 6.3431 6.8222656 5 8.1654656 5 9.8222656 C 5 11.479266 6.3431 12.822266 8 12.822266 L 10.5 12.822266 C 10.5 12.822266 11 12.822266 11 13.322266 C 10.969 13.822266 10.5 13.822266 10.5 13.822266 L 8 13.822266 C 5.7909 13.822266 4 12.031266 4 9.8222656 C 4 7.6132656 5.7909 5.8222656 8 5.8222656 z M 8 8.8222656 C 7.4477 8.8222656 7 9.2701656 7 9.8222656 C 7 10.374666 7.4477 10.822266 8 10.822266 C 8.5523 10.822266 9 10.374666 9 9.8222656 C 9 9.2701656 8.5523 8.8222656 8 8.8222656 z "
     id="path4-3" />
</svg>

<svg xmlns="http://www.w3.org/2000/svg" width="16" height="16" version="1.1" id="svg7"><defs id="defs3"><style id="current-color-scheme" type="text/css"></style></defs><path d="M2 1c-.554 0-1 .446-1 1v3c0 .554.446 1 1 1h4.88A3.957 3.957 0 0 1 8 5.822c.391 0 .762.073 1.12.178H14c.554 0 1-.446 1-1V2c0-.554-.446-1-1-1H2z" id="rect23" display="inline" opacity=".5" fill="#565656" fill-opacity="1" stroke="none" stroke-width="1" stroke-linecap="round" stroke-linejoin="miter" stroke-miterlimit="4" stroke-dasharray="none" stroke-opacity="1" paint-order="stroke markers fill"/><path d="M8 3L7 5H1c-.554 0-1 .446-1 1v8c0 .554.446 1 1 1h14c.554 0 1-.446 1-1V4c0-.5-.5-1-1-1H8zm0 2.822a4 4 0 0 1 4 4v.5a1.5 1.5 0 0 1-2.648.965A1.986 1.986 0 0 1 8 11.822a2 2 0 1 1 2-2v.5a.5.5 0 1 0 1 0v-.5a3 3 0 1 0-3 3h2.5s.5 0 .5.5c-.031.5-.5.5-.5.5H8a4 4 0 0 1 0-8zm0 3a1 1 0 1 0 0 2 1 1 0 0 0 0-2z" id="path4-3" display="inline" fill="#565656" fill-opacity="1" stroke="none"/></svg>
